Newaita/actions/22/im-user-online.svg

<svg height="22" viewBox="0 0 22 22" width="22" xmlns="http://www.w3.org/2000/svg"><g fill="#424242"><path d="m10.914062 1.992188c-2.519531 0-4.546874 2.027343-4.546874 4.546874 0 2.519532 2.027343 4.546876 4.546874 4.546876 2.519532 0 4.550782-2.027344 4.550782-4.546876 0-2.519531-2.03125-4.546874-4.550782-4.546874zm0 1.816406c1.511719 0 2.730469 1.21875 2.730469 2.730468 0 1.511719-1.21875 2.730469-2.730469 2.730469-1.511718 0-2.726562-1.21875-2.726562-2.730469 0-1.511718 1.214844-2.730468 2.726562-2.730468zm0 0"/><path d="m14.097656 11.546875c-.117187 0-.230468.019531-.335937.0625-2.117188.847656-3.574219.847656-5.695313 0-.195312-.078125-.410156-.085937-.609375-.019531-.605469.191406-1.703125.425781-2.710937.964844-1.007813.542968-2.011719 1.582031-2.011719 3.082031v1.363281h-.003906v1.363281c0 1.007813.808593 1.820313 1.816406 1.820313h8.640625l-2.046875-1.820313h-5.683594c-.503906 0-.910156-.40625-.910156-.910156v-.453125h-.003906v-1.363281c0-.777344.359375-1.113281 1.058593-1.484375.613282-.332032 1.40625-.539063 2.109376-.75 2.195312.808594 4.214843.808594 6.410156 0 .691406.203125 1.480468.410156 2.09375.734375l1.222656-1.375c-.117188-.078125-.234375-.148438-.351562-.210938-1.007813-.542969-2.105469-.777343-2.722657-.964843-.085937-.027344-.175781-.039063-.265625-.039063zm0 0"/><path d="m18.761719 13.371094c-.140625.007812-.269531.074218-.355469.183594l-3.121094 4.070312-2.199218-2.027344c-.191407-.175781-.488282-.164062-.664063.027344l-.640625.691406c-.175781.191406-.164062.488282.027344.667969l3.335937 3.078125c.203125.1875.523438.160156.691407-.058594l4.070312-5.300781c.15625-.207031.117188-.503906-.089844-.660156l-.746094-.574219c-.089843-.066406-.199218-.101562-.308593-.097656zm0 0"/></g></svg>

<svg xmlns="http://www.w3.org/2000/svg" xmlns:xlink="http://www.w3.org/1999/xlink" width="22px" height="22px" viewBox="0 0 22 22" version="1.1">
<g id="surface1">
     <defs>
  <style id="current-color-scheme" type="text/css">
   .ColorScheme-Text { color:#424242; } .ColorScheme-Highlight { color:#eeeeee; }
  </style>
 </defs>
<path style="fill:currentColor" class="ColorScheme-Text" d="M 10.914062 1.992188 C 8.394531 1.992188 6.367188 4.019531 6.367188 6.539062 C 6.367188 9.058594 8.394531 11.085938 10.914062 11.085938 C 13.433594 11.085938 15.464844 9.058594 15.464844 6.539062 C 15.464844 4.019531 13.433594 1.992188 10.914062 1.992188 Z M 10.914062 3.808594 C 12.425781 3.808594 13.644531 5.027344 13.644531 6.539062 C 13.644531 8.050781 12.425781 9.269531 10.914062 9.269531 C 9.402344 9.269531 8.1875 8.050781 8.1875 6.539062 C 8.1875 5.027344 9.402344 3.808594 10.914062 3.808594 Z M 10.914062 3.808594 "/>
     <defs>
  <style id="current-color-scheme" type="text/css">
   .ColorScheme-Text { color:#424242; } .ColorScheme-Highlight { color:#eeeeee; }
  </style>
 </defs>
<path style="fill:currentColor" class="ColorScheme-Text" d="M 14.097656 11.546875 C 13.980469 11.546875 13.867188 11.566406 13.761719 11.609375 C 11.644531 12.457031 10.1875 12.457031 8.066406 11.609375 C 7.871094 11.53125 7.65625 11.523438 7.457031 11.589844 C 6.851562 11.78125 5.753906 12.015625 4.746094 12.554688 C 3.738281 13.097656 2.734375 14.136719 2.734375 15.636719 L 2.734375 17 L 2.730469 17 L 2.730469 18.363281 C 2.730469 19.371094 3.539062 20.183594 4.546875 20.183594 L 13.1875 20.183594 L 11.140625 18.363281 L 5.457031 18.363281 C 4.953125 18.363281 4.546875 17.957031 4.546875 17.453125 L 4.546875 17 L 4.542969 17 L 4.542969 15.636719 C 4.542969 14.859375 4.902344 14.523438 5.601562 14.152344 C 6.214844 13.820312 7.007812 13.613281 7.710938 13.402344 C 9.90625 14.210938 11.925781 14.210938 14.121094 13.402344 C 14.8125 13.605469 15.601562 13.8125 16.214844 14.136719 L 17.4375 12.761719 C 17.320312 12.683594 17.203125 12.613281 17.085938 12.550781 C 16.078125 12.007812 14.980469 11.773438 14.363281 11.585938 C 14.277344 11.558594 14.1875 11.546875 14.097656 11.546875 Z M 14.097656 11.546875 "/>
     <defs>
  <style id="current-color-scheme" type="text/css">
   .ColorScheme-Text { color:#424242; } .ColorScheme-Highlight { color:#eeeeee; }
  </style>
 </defs>
<path style="fill:currentColor" class="ColorScheme-Text" d="M 18.761719 13.371094 C 18.621094 13.378906 18.492188 13.445312 18.40625 13.554688 L 15.285156 17.625 L 13.085938 15.597656 C 12.894531 15.421875 12.597656 15.433594 12.421875 15.625 L 11.78125 16.316406 C 11.605469 16.507812 11.617188 16.804688 11.808594 16.984375 L 15.144531 20.0625 C 15.347656 20.25 15.667969 20.222656 15.835938 20.003906 L 19.90625 14.703125 C 20.0625 14.496094 20.023438 14.199219 19.816406 14.042969 L 19.070312 13.46875 C 18.980469 13.402344 18.871094 13.367188 18.761719 13.371094 Z M 18.761719 13.371094 "/>
</g>
</svg>
